html-practice-pages/web-app-images/search.svg

<svg xmlns="http://www.w3.org/2000/svg" viewBox="0 0 640 640"><!--!Font Awesome Free 7.2.0 by @fontawesome - https://fontawesome.com License - https://fontawesome.com/license/free Copyright 2026 Fonticons, Inc.--><path d="M480 272c0 45.9-14.9 88.3-40 122.7l126.6 126.7c12.5 12.5 12.5 32.8 0 45.3s-32.8 12.5-45.3 0L394.7 440c-34.4 25.1-76.8 40-122.7 40-114.9 0-208-93.1-208-208S157.1 64 272 64s208 93.1 208 208zM272 416c79.5 0 144-64.5 144-144s-64.5-144-144-144-144 64.5-144 144 64.5 144 144 144z"/></svg>

<svg xmlns="http://www.w3.org/2000/svg" viewBox="0 0 640 640"><!--!Font Awesome Free 7.2.0 by @fontawesome - https://fontawesome.com License - https://fontawesome.com/license/free Copyright 2026 Fonticons, Inc.--><path d="M480 272C480 317.9 465.1 360.3 440 394.7L566.6 521.4C579.1 533.9 579.1 554.2 566.6 566.7C554.1 579.2 533.8 579.2 521.3 566.7L394.7 440C360.3 465.1 317.9 480 272 480C157.1 480 64 386.9 64 272C64 157.1 157.1 64 272 64C386.9 64 480 157.1 480 272zM272 416C351.5 416 416 351.5 416 272C416 192.5 351.5 128 272 128C192.5 128 128 192.5 128 272C128 351.5 192.5 416 272 416z"/></svg>
